X:1
T:Avenging and Bright
M:3/4
L:1/8
%Q:1/4=124
C:Thomas Moore - 1811
K:D
F2| B2 BcdB| c2 f3 e| d2 B2 B2| A2 F2 F2|
 B2 BcdB| c2 f3 e| d2 B3 c| B4 c2|
d2 defd| c2 A2 F2| G2 GBAG| F2 D2 A2|
d2 defd| c2 A2 F2| G2 d3 c| B6 :||
